src/xmb/monochrome/Sony - PlayStation 3.svg

<svg xmlns="http://www.w3.org/2000/svg" xml:space="preserve" width="64" height="64"><defs><clipPath id="a" clipPathUnits="userSpaceOnUse"><path d="M0 64h64V0H0z"/></clipPath></defs><g clip-path="url(#a)" transform="matrix(1 0 0 -1 0 64)"><path d="M0 0a2 2 0 1 0 .001 4.001A2 2 0 0 0 0 0m-4-4A2 2 0 1 0-3.999.001 2 2 0 0 0-4-4m-4 4a2 2 0 1 0 .001 4.001A2 2 0 0 0-8 0m-4-9a3 3 0 1 0 0 6 3 3 0 0 0 0-6m-5 10.269v1.462c0 .175.153.303.313.261l2.44-.653c.329-.088.329-.59 0-.678l-2.44-.653c-.16-.042-.313.086-.313.261M-20-5a1.5 1.5 0 1 0 0 3 1.5 1.5 0 0 0 0-3m-3 6.25a.25.25 0 0 0-.25-.25h-2.5a.25.25 0 0 0-.25.25v1.5c0 .138.112.25.25.25h2.5a.25.25 0 0 0 .25-.25zM-28-9a3 3 0 1 0 0 6 3 3 0 0 0 0-6m-4.274 10h-1.792c-.227 0-.449.058-.633.17C-35.16 1.45-36 2.025-36 2.5c0 .454.676.999 1.091 1.291.195.137.441.209.694.209h1.941c.151 0 .274-.104.274-.233V1.233c0-.129-.123-.233-.274-.233M-35-1.726c0-.151-.104-.274-.233-.274h-2.534c-.129 0-.233.123-.233.274V.066c0 .227.058.449.17.633.28.461.855 1.301 1.33 1.301.454 0 .999-.676 1.291-1.091.137-.195.209-.441.209-.694zM-38.934 1h-1.792c-.151 0-.274.104-.274.233v2.534c0 .129.123.233.274.233h1.941c.253 0 .499-.072.694-.209C-37.676 3.499-37 2.954-37 2.5c0-.475-.84-1.05-1.301-1.33a1.2 1.2 0 0 0-.633-.17M-38 6.726c0 .151.104.274.233.274h2.534c.129 0 .233-.123.233-.274V4.785c0-.253-.072-.499-.209-.694C-35.501 3.676-36.046 3-36.5 3c-.475 0-1.05.84-1.33 1.301-.112.184-.17.406-.17.633zM-4 8a2 2 0 1 0-.001-4.001A2 2 0 0 0-4 8m8.649-6.39q.022.293.024.592c0 2.791-1.35 5.277-3.439 6.867l-2.463 4.972a.93.93 0 0 1-.585.553c-1.541.506-3.112.564-4.719.031C-6.802 14.537-7.921 13.205-8 13l-1.122-2.745a1.165 1.165 0 0 0-1.089-.738H-29.95a.93.93 0 0 0-.871.591L-32 13c-.079.205-1.198 1.537-1.467 1.625-1.607.533-2.991.475-4.533-.031-.27-.089-3.234-5.525-3.234-5.525-2.09-1.59-3.438-4.076-3.438-6.867q.001-.299.023-.592C-45.437-2.702-47-11.287-47-11.514c0-3.03 2.501-5.486 5.586-5.486 2.344 0 3.725 1.829 5.179 3.428l3.899 5.13C-31.477-9.961-29.866-11-28-11a5.01 5.01 0 0 1 4.899 4h6.203A5.006 5.006 0 0 1-12-11c1.866 0 3.477 1.039 4.336 2.558l3.899-5.13C-2.311-15.171-.93-17 1.414-17 4.499-17 7-14.544 7-11.514c0 .227-1.563 8.812-2.351 13.124" style="fill:#fff;fill-opacity:1;fill-rule:nonzero;stroke:none" transform="translate(52 33)"/></g></svg>

<?xml version="1.0" encoding="UTF-8" standalone="no"?>
<!-- Created with Inkscape (http://www.inkscape.org/) -->

<svg
   xmlns:dc="http://purl.org/dc/elements/1.1/"
   xmlns:cc="http://creativecommons.org/ns#"
   xmlns:rdf="http://www.w3.org/1999/02/22-rdf-syntax-ns#"
   xmlns:svg="http://www.w3.org/2000/svg"
   xmlns="http://www.w3.org/2000/svg"
   xmlns:sodipodi="http://sodipodi.sourceforge.net/DTD/sodipodi-0.dtd"
   xmlns:inkscape="http://www.inkscape.org/namespaces/inkscape"
   id="svg5021"
   version="1.1"
   inkscape:version="0.48.5 r10040"
   width="64"
   height="64"
   xml:space="preserve"
   sodipodi:docname="Sony - PlayStation 3.svg"
   inkscape:export-filename="/Users/margetts/Desktop/Icon Workshop/Monochrome Plus June/png/Sony - PlayStation 3.png"
   inkscape:export-xdpi="360"
   inkscape:export-ydpi="360"><metadata
     id="metadata5027"><rdf:RDF><cc:Work
         rdf:about=""><dc:format>image/svg+xml</dc:format><dc:type
           rdf:resource="http://purl.org/dc/dcmitype/StillImage" /><dc:title></dc:title></cc:Work></rdf:RDF></metadata><defs
     id="defs5025"><clipPath
       clipPathUnits="userSpaceOnUse"
       id="clipPath5035"><path
         d="M 0,64 64,64 64,0 0,0 0,64 z"
         id="path5037"
         inkscape:connector-curvature="0" /></clipPath></defs><sodipodi:namedview
     pagecolor="#808080"
     bordercolor="#666666"
     borderopacity="1"
     objecttolerance="10"
     gridtolerance="10"
     guidetolerance="10"
     inkscape:pageopacity="0"
     inkscape:pageshadow="2"
     inkscape:window-width="1676"
     inkscape:window-height="1005"
     id="namedview5023"
     showgrid="false"
     inkscape:zoom="3.8"
     inkscape:cx="6.9736842"
     inkscape:cy="40"
     inkscape:window-x="4"
     inkscape:window-y="1"
     inkscape:window-maximized="1"
     inkscape:current-layer="g5029" /><g
     id="g5029"
     inkscape:groupmode="layer"
     inkscape:label="Sony - PlayStation 3"
     transform="matrix(1.25,0,0,-1.25,0,64)"><g
       id="g5031"
       transform="matrix(0.8,0,0,0.8,0,6.4671403e-5)"><g
         id="g5033"
         clip-path="url(#clipPath5035)"><g
           id="g5039"
           transform="translate(52,33)"><path
             d="M 0,0 C -1.104,0 -2,0.896 -2,2 -2,3.104 -1.104,4 0,4 1.104,4 2,3.104 2,2 2,0.896 1.104,0 0,0 m -4,-4 c -1.104,0 -2,0.896 -2,2 0,1.104 0.896,2 2,2 1.104,0 2,-0.896 2,-2 0,-1.104 -0.896,-2 -2,-2 m -4,4 c -1.104,0 -2,0.896 -2,2 0,1.104 0.896,2 2,2 1.104,0 2,-0.896 2,-2 0,-1.104 -0.896,-2 -2,-2 m -4,-9 c -1.657,0 -3,1.343 -3,3 0,1.657 1.343,3 3,3 1.657,0 3,-1.343 3,-3 0,-1.657 -1.343,-3 -3,-3 m -5,10.269 0,1.462 c 0,0.175 0.153,0.303 0.313,0.261 l 2.44,-0.653 c 0.329,-0.088 0.329,-0.59 0,-0.678 l -2.44,-0.653 C -16.847,0.966 -17,1.094 -17,1.269 M -20,-5 c -0.829,0 -1.5,0.672 -1.5,1.5 0,0.828 0.671,1.5 1.5,1.5 0.829,0 1.5,-0.672 1.5,-1.5 0,-0.828 -0.671,-1.5 -1.5,-1.5 m -3,6.25 C -23,1.112 -23.112,1 -23.25,1 l -2.5,0 C -25.888,1 -26,1.112 -26,1.25 l 0,1.5 c 0,0.138 0.112,0.25 0.25,0.25 l 2.5,0 C -23.112,3 -23,2.888 -23,2.75 l 0,-1.5 z M -28,-9 c -1.657,0 -3,1.343 -3,3 0,1.657 1.343,3 3,3 1.657,0 3,-1.343 3,-3 0,-1.657 -1.343,-3 -3,-3 m -4.274,10 -1.792,0 c -0.227,0 -0.449,0.058 -0.633,0.17 C -35.16,1.45 -36,2.025 -36,2.5 c 0,0.454 0.676,0.999 1.091,1.291 0.195,0.137 0.441,0.209 0.694,0.209 l 1.941,0 C -32.123,4 -32,3.896 -32,3.767 l 0,-2.534 C -32,1.104 -32.123,1 -32.274,1 M -35,-1.726 C -35,-1.877 -35.104,-2 -35.233,-2 l -2.534,0 C -37.896,-2 -38,-1.877 -38,-1.726 l 0,1.792 c 0,0.227 0.058,0.449 0.17,0.633 C -37.55,1.16 -36.975,2 -36.5,2 -36.046,2 -35.501,1.324 -35.209,0.909 -35.072,0.714 -35,0.468 -35,0.215 l 0,-1.941 z M -38.934,1 -40.726,1 C -40.877,1 -41,1.104 -41,1.233 l 0,2.534 C -41,3.896 -40.877,4 -40.726,4 l 1.941,0 c 0.253,0 0.499,-0.072 0.694,-0.209 C -37.676,3.499 -37,2.954 -37,2.5 -37,2.025 -37.84,1.45 -38.301,1.17 -38.485,1.058 -38.707,1 -38.934,1 M -38,6.726 C -38,6.877 -37.896,7 -37.767,7 l 2.534,0 C -35.104,7 -35,6.877 -35,6.726 l 0,-1.941 C -35,4.532 -35.072,4.286 -35.209,4.091 -35.501,3.676 -36.046,3 -36.5,3 -36.975,3 -37.55,3.84 -37.83,4.301 -37.942,4.485 -38,4.707 -38,4.934 l 0,1.792 z M -4,8 c 1.104,0 2,-0.896 2,-2 0,-1.104 -0.896,-2 -2,-2 -1.104,0 -2,0.896 -2,2 0,1.104 0.896,2 2,2 M 4.649,1.61 c 0.014,0.196 0.024,0.392 0.024,0.592 0,2.791 -1.35,5.277 -3.439,6.867 l -2.463,4.972 c -0.099,0.262 -0.315,0.464 -0.585,0.553 -1.541,0.506 -3.112,0.564 -4.719,0.031 C -6.802,14.537 -7.921,13.205 -8,13 L -9.122,10.255 C -9.294,9.811 -9.727,9.517 -10.211,9.517 l -19.739,0 c -0.387,0 -0.734,0.235 -0.871,0.591 L -32,13 c -0.079,0.205 -1.198,1.537 -1.467,1.625 -1.607,0.533 -2.991,0.475 -4.533,-0.031 -0.27,-0.089 -3.234,-5.525 -3.234,-5.525 -2.09,-1.59 -3.438,-4.076 -3.438,-6.867 0,-0.2 0.009,-0.396 0.023,-0.592 C -45.437,-2.702 -47,-11.287 -47,-11.514 c 0,-3.03 2.501,-5.486 5.586,-5.486 2.344,0 3.725,1.829 5.179,3.428 l 3.899,5.13 C -31.477,-9.961 -29.866,-11 -28,-11 c 2.415,0 4.435,1.721 4.899,4 l 6.203,0 c 0.463,-2.279 2.483,-4 4.898,-4 1.866,0 3.477,1.039 4.336,2.558 l 3.899,-5.13 C -2.311,-15.171 -0.93,-17 1.414,-17 4.499,-17 7,-14.544 7,-11.514 7,-11.287 5.437,-2.702 4.649,1.61"
             style="fill:#ffffff;fill-opacity:1;fill-rule:nonzero;stroke:none"
             id="path5041"
             inkscape:connector-curvature="0" /></g></g></g></g></svg>
